X:35
T:Tongs By the Fire
M:6/8
L:1/8
R:jig
D:Highland Sun: Celtic Crossover
K:G
D|:GBd cAF|Gge dBG|cec BdB|ABG FED|
GBd cAF|Gge dBG|cec Bag|1fef g2D:|2fef g2f||
|:gdB gdB|gfa gdB|gfg eag|fef def|
gag fgf|efe def|gdB AGA|1BGF G2f:|2BGF G3||
